X: 1
T: Charlie O'Neill's (Donegal)
R: strathspey
M: 4/4
L: 1/8
K: Emin
A|:BEBE cBcA |BEBE cAFA|BEBE cBcB|1 Addc BGGA:|2 Addc BG (3Bcd||
g2 fg B/B/B BA |Gaag fdef | (3gag fg B/B/B BA|GBdc BG (3Bcd|
g2 fg B/B/B BA | G2 ag fdcA | GBdB cdef | gb (3agf g2 BA ||